X: 2
T: The Blackthorn Stick
R: jig
M: 6/8
L: 1/8
K: Gmaj
(3d/e/f/|~gfg efd|gdB dBA|DBB Dcc|DBB ABd|
{def}~gfg efd|gdB dBA|DGG ~AGA|BGG G2:|
|:B/d/|edd gdd|edd gdB|{def}~gfg efd|gdB ABd|
{def}~gfg efd|gdB dBA|DGG ~AGA|BGG G2:||


Tune 702	Setting 27520

